public_html/static/admin/img/gis/move_vertex_off.svg

<svg width="24" height="22" viewBox="0 0 847 779" xmlns="http://www.w3.org/2000/svg"><g><path fill="#EBECE6" d="M120 1h607c66 0 120 54 120 120v536c0 66-54 120-120 120h-607c-66 0-120-54-120-120v-536c0-66 54-120 120-120z"/><path fill="#9E9E93" d="M120 1h607c66 0 120 54 120 120v536c0 66-54 120-120 120h-607c-66 0-120-54-120-120v-536c0-66 54-120 120-120zm607 25h-607c-26 0-50 11-67 28-17 18-28 41-28 67v536c0 27 11 50 28 68 17 17 41 27 67 27h607c26 0 49-10 67-27 17-18 28-41 28-68v-536c0-26-11-49-28-67-18-17-41-28-67-28z"/><path stroke="#A9A8A4" stroke-width="20" d="M706 295l-68 281"/><path stroke="#E47474" stroke-width="20" d="M316 648l390-353M141 435l175 213"/><path stroke="#C9C9C9" stroke-width="20" d="M319 151l-178 284M706 295l-387-144"/><g fill="#040405"><path d="M319 111c22 0 40 18 40 40s-18 40-40 40-40-18-40-40 18-40 40-40zM141 395c22 0 40 18 40 40s-18 40-40 40c-23 0-41-18-41-40s18-40 41-40zM316 608c22 0 40 18 40 40 0 23-18 41-40 41s-40-18-40-41c0-22 18-40 40-40zM706 254c22 0 40 18 40 41 0 22-18 40-40 40s-40-18-40-40c0-23 18-41 40-41zM638 536c22 0 40 18 40 40s-18 40-40 40-40-18-40-40 18-40 40-40z"/></g></g></svg>

<svg width="24" height="22" viewBox="0 0 847 779" xmlns="http://www.w3.org/2000/svg"><g><path fill="#ebece6" d="M120 1h607c66 0 120 54 120 120v536c0 66-54 120-120 120H120C54 777 0 723 0 657V121C0 55 54 1 120 1z"/><path fill="#9e9e93" d="M120 1h607c66 0 120 54 120 120v536c0 66-54 120-120 120H120C54 777 0 723 0 657V121C0 55 54 1 120 1zm607 25H120c-26 0-50 11-67 28-17 18-28 41-28 67v536c0 27 11 50 28 68 17 17 41 27 67 27h607c26 0 49-10 67-27 17-18 28-41 28-68V121c0-26-11-49-28-67-18-17-41-28-67-28z"/><path stroke="#a9a8a4" stroke-width="20" d="M706 295l-68 281"/><path stroke="#e47474" stroke-width="20" d="M316 648l390-353M141 435l175 213"/><path stroke="#c9c9c9" stroke-width="20" d="M319 151 141 435M706 295 319 151"/><g fill="#040405"><path d="M319 111c22 0 40 18 40 40s-18 40-40 40-40-18-40-40 18-40 40-40zM141 395c22 0 40 18 40 40s-18 40-40 40c-23 0-41-18-41-40s18-40 41-40zM316 608c22 0 40 18 40 40 0 23-18 41-40 41s-40-18-40-41c0-22 18-40 40-40zM706 254c22 0 40 18 40 41 0 22-18 40-40 40s-40-18-40-40c0-23 18-41 40-41zM638 536c22 0 40 18 40 40s-18 40-40 40-40-18-40-40 18-40 40-40z"/></g></g></svg>
